X: 613
T: Prince Rupert's March
P: Longways for Eight
%R: march
B: "The Dancing-Master: Containing Directions and Tunes for Dancing" printed by W. Pearson for John Walsh, London ca. 1709
S: 7: DMDfD http://digital.nls.uk/special-collections-of-printed-music/pageturner.cfm?id=89751228 p.37 "E"
Z: 2013 John Chambers <jc:trillian.mit.edu>
N: Both strains should probably be repeated.
N: The dance is in 3 sections, with each section having two columns.  "##" is used to mark the columns.
M: C|
L: 1/4
K: Ddor
% - - - - - - - - - - - - - - - - - - - - - - - - -
d |\
dA de | f>g ff | ed d^c | d3 |][| d | e>d e/f/g | c>d cc |
ff g/a/ g/a/ | f3 f | f>d e/fg | c>d cf | ed d^c | d3 |]
% - - - - - - - - - - - - - - - - - - - - - - - - -
%%begintext align
%% Lead all round to the right-hand, and come to your places again :|
%% ##
%% First man turn down to the right hand and stand before the last wo.
%% 2. man before the 3. and the 3. before the 2. wo. your faces all to the
%% left-hand and march toward the wall, and change places with the we. .|
%% Do this again till you come to your places :|
%%endtext
%%sep 1 1 300
%%begintext align
%% Lead all round to the left-hand and come to your places again :|
%% ##
%% The we. do as the men have done, only they must go down behind
%% the men, and stand as the men did before them .| This again till you
%% come to your places.
%%endtext
%%sep 1 1 300
%%begintext align
%% Lead all round to the right-hand as at the first :|
%% ##
%% Men march all on the outside of the we. the we. marching down on
%% the outside of the men, open all a D. and close again :| The we.
%% march up to their places on the outside, and the men in the inside
%% the we. open all and close again :|
%%endtext
%%sep 1 8 500

%%sep 1 1 500
%%sep 1 1 500
